X:3
T:Ashover simple chords 9
M:3/4
L:1/8
K:Gm
[G4G,4B,4D4] B4 A2 c2 | [B2G,2B,2D2] d2 A2 c2 G2 B2 | [AD,^F,A,] cAc A2 c2 B2 d2 | [c6D,6^F,6A,6] e6 | [^F4D,4F,4A,4] A4 G2 B2 |
[A2D,2^F,2A,2] c2 G2 B2 =F2 A2 | [GG,B,D] BGB G2 B2 A2 c2 | [B6G,6B,6D6] d6 | [G4G,4B,4D4] B4 A2 c2 |
[B2G,2B,2D2] d2 G BAc B2 d2 | [c4C,4E,4G,4] e4 d2 f2 | [e6C,6E,6G,6] g6 | [eD,^F,A,] gd=f d2 f2 d2 f2 |
[c2D,2^F,2A,2] =f2 c2 e2 c2 f2 | [B6G,6B,6D6] g6 | [B6G,6B,6D6] g6 | [c4C,4E,4G,4] e4 d2 f2 |
[e2C,2E,2G,2] g2 d2 f2 c2 e2 | [B4G,4B,4D4] d4 c2 e2 | [d2G,2B,2D2] f2 c2 e2 B2 d2 | [A4D,4^F,4A,4] c4 B2 d2 |
[c2D,2^F,2A,2] e2 B2 d2 A2 c2 | [G4G,4B,4D4] B4 A2 c2 | [=B6G,6B,6D6F6] d6 | [c4C,4=E,4G,4] e4 d2 ^f2 |
[=e2C,2E,2G,2] g2 d2 ^f2 c2 e'2 | [=B4G,4B,4D4] d4 c2 =e2 | [d2=E,2_A,2=B,2] ^f2 c2 e2 B2 d2 | [A4A,4C4=E4] c4 =B2 d2 |
[c4D,4^F,4A,4] =e4 c2 f2 | [=B6G,6B,6D6] g6 | [=B6G,6B,6D6] g6 | [G4G,4B,4D4] B4 A2 c2 |
[B2G,2B,2D2] d2 A2 c2 G2 B2 | [AD,^F,A,] cAc A2 c2 B2 d2 | [c6D,6^F,6A,6] e6 | [^F4D,4F,4A,4] A4 G2 B2 |
[A2D,2^F,2A,2] c2 G2 B2 =F2 A2 | [GG,B,D] BGB G2 B2 A2 c2 | [B6G,6B,6D6] d6 | [G4G,4B,4D4] B4 A2 c2 |
[B2G,2B,2D2] d2 G BAc B2 d2 | [c4C,4E,4G,4] e4 d2 f2 | [e6C,6E,6G,6] g6 | [eD,^F,A,] gd=f d2 f2 d2 f2 |
[c2D,2^F,2A,2] =f2 c2 e2 c2 f2 | [B6G,6B,6D6] g6 | [B6G,6B,6D6] g6 | [c4C,4E,4G,4] e4 d2 f2 |
[e2C,2E,2G,2] g2 d2 f2 c2 e2 | [B4G,4B,4D4] d4 c2 e2 | [d2G,2B,2D2] f2 c2 e2 B2 d2 | [A4D,4^F,4A,4] c4 B2 d2 |
[c2D,2^F,2A,2] e2 B2 d2 A2 c2 | [G4G,4B,4D4] B4 A2 c2 | [=B6G,6B,6D6F6] d6 | [c4C,4=E,4G,4] e4 d2 ^f2 |
[=e2C,2E,2G,2] g2 d2 ^f2 c2 e'2 | [=B4G,4B,4D4] d4 c2 =e2 | [d2=E,2_A,2=B,2] ^f2 c2 e2 B2 d2 | [A4A,4C4=E4] c4 =B2 d2 |
[c4D,4^F,4A,4] =e4 c2 f2 | [=B6G,6B,6D6] g6 | [=B6G,6B,6D6] g6 |


